egg-off-outline.svg

<svg fill="currentColor" viewBox="0 0 24 24"><path d="M22.11 21.46 2.39 1.73 1.11 3 6.1 8c-1 2.28-1.6 4.76-1.6 6.5 0 4.14 3.36 7.5 7.5 7.5 2.23 0 4.22-1 5.59-2.5l3.25 3.23zM12 20a5.51 5.51 0 0 1-5.5-5.5c0-1.42.45-3.25 1.13-5l8.54 8.56C15.16 19.24 13.67 20 12 20M9.36 6.16 7.92 4.72C9.1 3.11 10.5 2 12 2c4.14 0 7.5 8.36 7.5 12.5 0 .56-.07 1.1-.18 1.62l-1.82-1.83C17.38 10.46 14.28 4 12 4c-.83 0-1.78.87-2.64 2.16"/></svg>

<svg  viewBox="0 0 24 24" fill="currentColor"><path  d="M22.11 21.46L2.39 1.73L1.11 3L6.1 8C5.1 10.28 4.5 12.76 4.5 14.5C4.5 18.64 7.86 22 12 22C14.23 22 16.22 21 17.59 19.5L20.84 22.73L22.11 21.46M12 20C8.97 20 6.5 17.53 6.5 14.5C6.5 13.08 6.95 11.25 7.63 9.5L16.17 18.06C15.16 19.24 13.67 20 12 20M9.36 6.16L7.92 4.72C9.1 3.11 10.5 2 12 2C16.14 2 19.5 10.36 19.5 14.5C19.5 15.06 19.43 15.6 19.32 16.12L17.5 14.29C17.38 10.46 14.28 4 12 4C11.17 4 10.22 4.87 9.36 6.16Z"/></svg>
